svg/set/MM3/U.svg

<?xml version="1.0" encoding="UTF-8" standalone="no"?>
<svg
   version="1.1"
   width="90.230469"
   height="61.162312"
   id="svg4"
   xmlns="http://www.w3.org/2000/svg"
   xmlns:svg="http://www.w3.org/2000/svg">
  <defs
     id="defs4" />
  <linearGradient
     id="grad_uncommon"
     gradientUnits="userSpaceOnUse"
     x1="19.221769"
     y1="13.9221"
     x2="75.94046"
     y2="53.766102">
    <stop
       offset="0.1"
       style="stop-color:#536e78"
       id="stop1" />
    <stop
       offset="0.4"
       style="stop-color:#d9eaf3"
       id="stop2" />
    <stop
       offset="0.7"
       style="stop-color:#536e78"
       id="stop3" />
  </linearGradient>
  <g
     id="g4"
     transform="translate(-0.9375,-0.908)">
    <path
       d="M 35.184,0.908 32.765,1.484 C 27.845,2.653 22.329,4.891 17.576,8.629 l -0.367,0.288 -0.02,0.469 c -0.347,8.479 2.261,15.179 7.319,19.671 5.058,4.492 12.454,6.748 21.545,6.748 9.091,0 16.485,-2.256 21.543,-6.748 5.057,-4.492 7.665,-11.192 7.318,-19.67 L 74.895,8.918 74.527,8.629 C 69.774,4.892 64.258,2.654 59.338,1.484 L 56.92,0.908 58.242,3.011 c 4.136,6.581 3.575,12.188 0.813,16.298 -2.762,4.109 -7.88,6.687 -13.003,6.687 -5.121,0 -10.238,-2.578 -13.001,-6.687 -2.763,-4.11 -3.325,-9.717 0.81,-16.297 z m -23.238688,19.008016 -1.359374,1.65625 C 4.7422466,28.685546 1.2919882,34.999072 0.96679688,45.28125 L 0.9375,46.222656 1.875,46.322266 c 12.827408,1.380853 20.783302,12.039893 23.998047,15.43164 l 0.300781,0.316406 h 39.75586 l 0.300781,-0.316406 c 3.214604,-3.391599 11.172583,-14.050786 24,-15.43164 l 0.9375,-0.09961 -0.0293,-0.941406 C 90.813481,34.999072 87.363221,28.685546 81.519531,21.572266 l -1.359375,-1.65625 -0.421875,2.101562 c -0.608307,3.036192 -2.532031,8.129521 -7.513672,12.449219 -4.981641,4.319698 -13.050784,7.931641 -26.171875,7.931641 -13.1211,0 -21.190234,-3.611943 -26.171875,-7.931641 -4.98164,-4.319698 -6.905364,-9.413026 -7.513671,-12.449219 z"
       id="path3" />
    <path
       d="m 31.076172,4.1972656 c -3.04518,6.2356104 -2.552316,12.0197224 0.287109,16.2441404 3.184724,4.738145 8.894383,7.585938 14.689453,7.585938 5.795066,0 11.503248,-2.847763 14.6875,-7.585938 2.839005,-4.224445 3.332369,-10.00856 0.28711,-16.2441404 3.967009,1.1730821 8.129574,2.9306429 11.835937,5.75 0.208341,7.7709714 -2.141116,13.6140414 -6.617187,17.5898434 -4.573091,4.061979 -11.438255,6.234375 -20.19336,6.234375 -8.755104,0 -15.621755,-2.172372 -20.195312,-6.234375 -4.476528,-3.975825 -6.825509,-9.818909 -6.617188,-17.5898434 3.706372,-2.819358 7.868925,-4.576918 11.835938,-5.75 z M 10.947266,24.472656 c 1.025528,3.34351 3.171781,7.68813 7.601562,11.529297 5.381934,4.666802 14.007597,8.427735 27.503906,8.427735 13.4963,0 22.121973,-3.760933 27.503907,-8.427735 4.42978,-3.841167 6.576033,-8.185787 7.601562,-11.529297 4.720327,6.040029 7.4193,11.490242 7.853516,20.03125 C 76.0783,46.397267 68.009729,56.807084 65.039062,60.039062 H 27.064453 C 24.093986,56.807213 16.027099,46.397275 3.09375,44.503906 3.527966,35.962898 6.2269375,30.512685 10.947266,24.472656 Z"
       style="fill:url(#grad_uncommon)"
       id="path4" />
  </g>
</svg>

<?xml version="1.0"?>
<svg xmlns="http://www.w3.org/2000/svg" xmlns:xlink="http://www.w3.org/1999/xlink" version="1.1" baseProfile="full" width="98.245056" height="67.238716">
  <linearGradient id="grad_uncommon" gradientUnits="userSpaceOnUse" x1="19.22177" y1="13.9221" x2="75.94046" y2="53.7661">
    <stop offset="0.1" style="stop-color:#536e78"/>
    <stop offset="0.4" style="stop-color:#d9eaf3"/>
    <stop offset="0.7" style="stop-color:#536e78"/>
  </linearGradient>
  <g>
    <path d="M 35.184 0.908 L 32.765 1.484 C 27.845 2.653 22.329 4.891 17.576 8.629 L 17.209 8.917 L 17.189 9.386 C 16.842 17.865 19.450 24.565 24.508 29.057 C 29.566 33.549 36.962 35.805 46.053 35.805 C 55.144 35.805 62.538 33.549 67.596 29.057 C 72.653 24.565 75.261 17.865 74.914 9.387 L 74.895 8.918 L 74.527 8.629 C 69.774 4.892 64.258 2.654 59.338 1.484 L 56.920 0.908 L 58.242 3.011 C 62.378 9.592 61.817 15.199 59.055 19.309 C 56.293 23.418 51.175 25.996 46.052 25.996 C 40.931 25.996 35.814 23.418 33.051 19.309 C 30.288 15.199 29.726 9.592 33.861 3.012 Z M 11.945312,19.916016 10.585938,21.572266 C 4.7422466,28.685546 1.2919882,34.999072 0.96679688,45.28125 L 0.9375,46.222656 1.875,46.322266 C 14.702408,47.703119 22.658302,58.362159 25.873047,61.753906 L 26.173828,62.070312 H 65.929688 L 66.230469,61.753906 C 69.445073,58.362307 77.403052,47.70312 90.230469,46.322266 L 91.167969,46.222656 91.138672,45.28125 C 90.813481,34.999072 87.363221,28.685546 81.519531,21.572266 L 80.160156,19.916016 79.738281,22.017578 C 79.129974,25.05377 77.20625,30.147099 72.224609,34.466797 67.242968,38.786495 59.173825,42.398438 46.052734,42.398438 32.931634,42.398438 24.8625,38.786495 19.880859,34.466797 14.899219,30.147099 12.975495,25.053771 12.367188,22.017578 Z"/>
    <path d="M 31.076172,4.1972656 C 28.030992,10.432876 28.523856,16.216988 31.363281,20.441406 34.548005,25.179551 40.257664,28.027344 46.052734,28.027344 51.8478,28.027344 57.555982,25.179581 60.740234,20.441406 63.579239,16.216961 64.072603,10.432846 61.027344,4.1972656 64.994353,5.3703477 69.156918,7.1279085 72.863281,9.9472656 73.071622,17.718237 70.722165,23.561307 66.246094,27.537109 61.673003,31.599088 54.807839,33.771484 46.052734,33.771484 37.29763,33.771484 30.430979,31.599112 25.857422,27.537109 21.380894,23.561284 19.031913,17.7182 19.240234,9.9472656 22.946606,7.1279076 27.109159,5.3703476 31.076172,4.1972656 Z M 10.947266,24.472656 C 11.972794,27.816166 14.119047,32.160786 18.548828,36.001953 23.930762,40.668755 32.556425,44.429688 46.052734,44.429688 59.549034,44.429688 68.174707,40.668755 73.556641,36.001953 77.986421,32.160786 80.132674,27.816166 81.158203,24.472656 85.87853,30.512685 88.577503,35.962898 89.011719,44.503906 76.0783,46.397267 68.009729,56.807084 65.039062,60.039062 H 27.064453 C 24.093986,56.807213 16.027099,46.397275 3.09375,44.503906 3.527966,35.962898 6.2269375,30.512685 10.947266,24.472656 Z" style="fill: url(#grad_uncommon);"/>
  </g>
</svg>
